X:6017
T:Fourpence Halfpenny Farthing
R:Jig
C:Trad.
O:England
Z:Paul Hardy's Session Tunebook 2015 (see www.paulhardy.net). Creative Commons cc by-nc-sa licenced.
M:6/8
L:1/8
Q:3/8=120
K:D
|:A|"D"d2e f2d|"Em"g2e "D"f2d|d2e fed|"A"c3 e3|"D"d2e f2d|"Em"g2e "D"f2d|"A7"fga gec|"D"d3 d2:|
|:g|"D"fed "A"c2A|"D"ABA "A"A2g|"D"fed "A"c2A|"G"B3 g3|"D"fed "A"c2A|"D"ABA "A"A2g|"D"fga "A7"gec|"D"d3 d2:|

